resources/svg/vim-o.svg

<svg xmlns="http://www.w3.org/2000/svg" viewBox="0 0 15 15" fill="none"><path d="M1.5 3.5H2.5V13.5H5.5L13.5 3.5V1.5H8.5V3.5H10.5L5.5 9.5V3.5H6.5V1.5H1.5V3.5Z" stroke="black"/></svg>

<svg xmlns="http://www.w3.org/2000/svg" viewBox="0 0 15 15" fill="none"><path d="M1.5 3.5h1v10h3l8-10v-2h-5v2h2l-5 6v-6h1v-2h-5v2z" stroke="currentColor"/></svg>
